assets/gmail.svg

<svg width="32" height="23" viewBox="0 0 32 23" fill="none" xmlns="http://www.w3.org/2000/svg">
<path d="M2.94139 22.48H29.0586C30.6805 22.48 32 21.2574 32 19.7547V2.72517C32 1.22244 30.6805 0 29.0586 0H2.94139C1.31949 0 0 1.22256 0 2.72517V19.7547C0 21.2574 1.31949 22.48 2.94139 22.48ZM1.91563 2.72517C1.91563 2.20032 2.37551 1.77474 2.94139 1.77474H29.0586C29.6247 1.77474 30.0844 2.20032 30.0844 2.72517V19.7547C30.0844 20.2797 29.6246 20.7053 29.0586 20.7053H2.94139C2.37538 20.7053 1.91563 20.2797 1.91563 19.7547V2.72517ZM5.71344 19.4502H3.79781V3.10508L15.7608 10.3005C15.9015 10.3851 16.0983 10.3852 16.2395 10.3002L28.2023 3.10508V19.4502H26.2867V6.3732L17.2823 11.789C16.9002 12.0186 16.4568 12.1399 16 12.1399C15.5432 12.1399 15.0998 12.0186 14.7179 11.7891L5.71344 6.3732V19.4502Z" fill="white"/>
</svg>

<svg width="32" height="23" fill="none" xmlns="http://www.w3.org/2000/svg"><path d="M2.941 22.48H29.06c1.621 0 2.941-1.223 2.941-2.725V2.725C32 1.222 30.68 0 29.059 0H2.94C1.32 0 0 1.223 0 2.725v17.03c0 1.502 1.32 2.725 2.941 2.725zM1.916 2.725c0-.525.46-.95 1.025-.95H29.06c.566 0 1.025.425 1.025.95v17.03c0 .525-.46.95-1.025.95H2.94c-.566 0-1.025-.425-1.025-.95V2.725zM5.713 19.45H3.798V3.105L15.76 10.3c.14.085.337.085.479 0l11.962-7.195V19.45h-1.915V6.373l-9.005 5.416c-.382.23-.825.35-1.282.35-.457 0-.9-.12-1.282-.35L5.713 6.373V19.45z" fill="#fff"/></svg>15.7608 10.3005C15.9015 10.3851 16.0983 10.3852 16.2395 10.3002L28.2023 3.10508V19.4502H26.2867V6.3732L17.2823 11.789C16.9002 12.0186 16.4568 12.1399 16 12.1399C15.5432 12.1399 15.0998 12.0186 14.7179 11.7891L5.71344 6.3732V19.4502Z" fill="white"/>
</svg>
